assets/images/logo.svg

<svg height="31" viewBox="0 0 34 31" width="34" xmlns="http://www.w3.org/2000/svg" xmlns:xlink="http://www.w3.org/1999/xlink"><linearGradient id="a" x1="5.864224%" x2="75.628324%" y1="89.410899%" y2="-.080876%"><stop offset="0" stop-color="#1764ff"/><stop offset=".673583571" stop-color="#16cde5"/><stop offset=".999196491" stop-color="#a2e7a2"/><stop offset="1" stop-color="#abe99e"/></linearGradient><path d="m9.52629496 17.8204069c.18740157-.0711174.42798467-.0564651.63817834-.0332358.1403703.0153671.3190892.0693306.5357948.1618904.5014259-.041098.8809322-.0167966 1.1388807.0729043.3867418.1343726.5640136.3051973.6602468.5528575.0643967.1651067.0658438.349869.0043414.5542869-.1874016-.1447364-.3577996-.226575-.5108321-.2455159-.229368-.0282325-.3469462.0150097-.6996808.1486676-.2351564.0893435-.4240051.199772-.5665461.331643l-3.74260479 3.1817001-.70619281 3.6866694c-.31366248 1.0231616-.72898489 1.8422626-1.24560545 2.4580179-.77529261.9234542-1.30095765 1.1700422-2.23760374 1.6632183-.62443073.328784-1.34111513.5442805-2.14932965.6464894.39542456-.0857697.81436476-.4141964 1.25645882-.9849225.17256863-.2230014.59874442-.762636.73513514-1.6199761.14145563-.8895037.21959991-2.9919345.2337093-6.3076498l-2.39533944-.8351829c5.90893808-2.2403771 8.92581401-3.3846884 9.05098958-3.4318618zm18.92025114-7.0493794c.8353479 2.3736776.0293041 5.781238-.9149394 7.9783729-2.2035965 5.1283159-7.266695 8.213525-12.58123 8.213525-1.7759736 0-3.5787189-.3441511-5.31381147-1.0717644-.60308577-.2526634-1.16782294-.5993161-1.62149394-.8777104l-.09478612-.0578945 2.53824213-4.0444008.0987657.0607536c.3284955.2019163.7007662.4302782.9608853.5389199 4.4831667 1.8797868 9.6772292-.1933393 11.5798255-4.6212023.7781869-1.8108137 1.0455416-3.8549925.7988083-4.5565176zm-26.04035329-2.5573321c2.94054054-6.8426386 10.96878059-10.04649587 17.89540329-7.14211795 3.2057246 1.34408334 5.7034475 3.77100969 7.1125771 6.88159236l6.5858268-1.2418744-34 13.34648669 1.33858268-7.1535539c.06873803-1.6017499.42436688-3.19349342 1.06761013-4.6905328zm16.01342839-2.76214309c-4.4828049-1.87978686-9.67686742.19369667-11.57946372 4.62120229-.26156629.6089651-.44824431 1.2347269-.56509896 1.8669214l16.19902108-3.05483236c-.9500319-1.52312769-2.3457757-2.71675661-4.0544584-3.43329133z" fill="url(#a)" fill-rule="evenodd"/></svg>

<?xml version="1.0" encoding="UTF-8"?>
<svg width="34px" height="31px" viewBox="0 0 34 31" version="1.1" xmlns="http://www.w3.org/2000/svg" xmlns:xlink="http://www.w3.org/1999/xlink">
    <title>切片</title>
    <defs>
        <linearGradient x1="5.86422445%" y1="89.4108994%" x2="75.6283235%" y2="-0.080875564%" id="linearGradient-1">
            <stop stop-color="#1764FF" offset="0%"></stop>
            <stop stop-color="#16CDE5" offset="67.3583571%"></stop>
            <stop stop-color="#A2E7A2" offset="99.9196491%"></stop>
            <stop stop-color="#ABE99E" offset="100%"></stop>
        </linearGradient>
    </defs>
    <g id="页面-1" stroke="none" stroke-width="1" fill="none" fill-rule="evenodd">
        <g id="编组备份" transform="translate(0.000000, 0.000000)" fill="url(#linearGradient-1)">
            <path d="M9.52629496,17.8204069 C9.71369653,17.7492895 9.95427963,17.7639418 10.1644733,17.7871711 C10.3048436,17.8025382 10.4835625,17.8565017 10.7002681,17.9490615 C11.201694,17.9079635 11.5812003,17.9322649 11.8391488,18.0219658 C12.2258906,18.1563384 12.4031624,18.3271631 12.4993956,18.5748233 C12.5637923,18.73993 12.5652394,18.9246923 12.503737,19.1291102 C12.3163354,18.9843738 12.1459374,18.9025352 11.9929049,18.8835943 C11.7635369,18.8553618 11.6459587,18.898604 11.2932241,19.0322619 C11.0580677,19.1216054 10.869219,19.2320339 10.726678,19.3639049 L10.726678,19.3639049 L6.98407321,22.545605 L6.2778804,26.2322744 C5.96421792,27.255436 5.54889551,28.074537 5.03227495,28.6902923 C4.25698234,29.6137465 3.7313173,29.8603345 2.79467121,30.3535106 C2.17024048,30.6822946 1.45355608,30.8977911 0.645341562,31 C1.04076612,30.9142303 1.45970632,30.5858036 1.90180038,30.0150775 C2.07436901,29.7920761 2.5005448,29.2524415 2.63693552,28.3951014 C2.77839115,27.5055977 2.85653543,25.4031669 2.87064482,22.0874516 L2.87064482,22.0874516 L0.475305384,21.2522687 C6.38424346,19.0118916 9.40111939,17.8675803 9.52629496,17.8204069 Z M28.4465461,10.7710275 C29.281894,13.1447051 28.4758502,16.5522655 27.5316067,18.7494004 C25.3280102,23.8777163 20.2649117,26.9629254 14.9503767,26.9629254 C13.1744031,26.9629254 11.3716578,26.6187743 9.63656523,25.891161 C9.03347946,25.6384976 8.46874229,25.2918449 8.01507129,25.0134506 L8.01507129,25.0134506 L7.92028517,24.9555561 L10.4585273,20.9111553 L10.557293,20.9719089 C10.8857885,21.1738252 11.2580592,21.4021871 11.5181783,21.5108288 C16.001345,23.3906156 21.1954075,21.3174895 23.0980038,16.8896265 C23.8761907,15.0788128 24.1435454,13.034634 23.8968121,12.3331089 L23.8968121,12.3331089 Z M2.40619281,8.2136954 C5.34673335,1.3710568 13.3749734,-1.83280047 20.3015961,1.07157745 C23.5073207,2.41566079 26.0050436,4.84258714 27.4141732,7.95316981 L27.4141732,7.95316981 L34,6.71129541 L0,20.0577821 L1.33858268,12.9042282 C1.40732071,11.3024783 1.76294956,9.71073478 2.40619281,8.2136954 Z M18.4196212,5.45155231 C13.9368163,3.57176545 8.74275378,5.64524898 6.84015748,10.0727546 C6.57859119,10.6817197 6.39191317,11.3074815 6.27505852,11.939676 L6.27505852,11.939676 L22.4740796,8.88484364 C21.5240477,7.36171595 20.1283039,6.16808703 18.4196212,5.45155231 Z" id="形状结合"></path>
        </g>
    </g>
</svg>
